X: 31529
T: Paddy's Rambles Through The Park
R: waltz
M: 3/4
K: Amixolydian
A/G/F/G/|E2 A2 A2|G2 B2 {B/c/}BA|BG3 G2|
G4 AG|E2 A2 AB|=c4 {Bc}BA|^GE3 E2|E4||
^cd|e2 ed ^c<e|d2 d^c Bd|^c2 cB Ac|
B4 EF|G3B e^c|d3e f^d|e2 E2 ^G2|A4||
A2 a2 a2|A2 g2 g2 BA|BG3 G2|G4 B_B|
A2 a2 a2|A2 g2 g2 BA|GE3 E2|E4||
cde2 ed c/d/e/c/|{c}d2 {e}dc B/c/d/B/|c2 {d}cB A/B/c/A/|
B4 EF|G2B edc|{c}d3e f{gf}^d|e2 E2 ^G2|A4|

